!!!Rep U0460a
!!!Isim(Name): Asaf'ın Miktarını Milmez Süleyman Olmayan
!!!Yore(Region): Şanlıurfa
!!!Makam: Hüseyni
!!!Donanim(Key Signature): b-2
!!!Usul: 2/4
**kern	**Dcent
*staff1	*.
=1	=1
*clefG2	*.
*k[b-]	*.
*M2/4	*.
8ee	0
16dd	0
16ee	0
16dd	0
16ee	0
8cc	0
=2	=2
8dd	0
8ee	0
8ee	0
8r	.
=3:!	=3:!
8ee	0
16dd	0
16ee	0
16dd	0
16ee	0
8cc	0
=4	=4
16dd	0
16ee	0
16dd	0
16cc	0
8dd	0
8ee	0
=5	=5
!!linebreak:default
16dd	0
16ee	0
16dd	0
16cc	0
4b-	50
=4	=4
16cc	0
16dd	0
16cc	0
16b-	50
8cc	0
8dd	0
=5	=5
16b-	50
16dd	0
16cc	0
16b-	50
4a	0
=6!:	=6!:
16a	0
16b-	50
16a	0
16g	0
8a	0
8b-	50
=7	=7
!!linebreak:default
8cc	0
8dd	0
8ee	0
8r	.
=8	=8
8ee	0
16dd	0
16ee	0
8dd	0
16cc	0
16dd	0
=9	=9
8cc	0
16b-	50
16cc	0
8b-	50
8a	0
=10	=10
!!linebreak:default
8r	.
4a	0
8cc	0
=11	=11
16b-	50
16cc	0
16b-	50
16a	0
4g	0
=12:!	=12:!
4a;	0
4r	.
!!linebreak:default
=12!:	=12!:
8ff#	50
8gg	0
4aa	0
=13	=13
8ff#	50
8gg	0
4aa	0
=14	=14
8aa	0
16aa	0
16ccc	0
8bb-	50
8aa	0
=15	=15
8gg	0
8ff#	50
16gg	0
16aa	0
16ff#	50
16gg	0
=16	=16
!!linebreak:default
4.ee	0
8dd	0
=17	=17
16cc	0
16dd	0
16cc	0
16b-	50
4a	0
=18:!	=18:!
8ee	0
16ee	0
16ff#	50
8ee	0
8dd	0
=19	=19
8cc	0
8dd	0
4ee;	0
!!pagebreak:default
=18b:!:	=18b:!:
8r	.
16ccc	0
16ccc	0
8ccc	0
8bb-	50
=21	=21
16bb-	50
16aa	0
16bb-	50
16ccc	0
8bb-	50
8aa	0
=22	=22
16aa	0
16gg	0
16aa	0
16bb-	50
16aa	0
16bb-	50
16gg	0
16aa	0
=23	=23
!!linebreak:default
16ff#	50
16gg	0
16ee	0
16ff#	50
8dd	0
8r	.
=24	=24
8r	.
16ccc	0
16ccc	0
8ccc	0
8bb-	50
=25	=25
16bb-	50
16aa	0
16bb-	50
16ccc	0
8bb-	50
16aa	0
16bb-	50
=26	=26
4aa	0
4r	.
=27	=27
2r	.
=28:!	=28:!
!!linebreak:default
8gg	0
8aa	0
8aa	0
8ff#	50
=29	=29
8gg	0
8aa	0
8aa	0
8ff#	50
=30	=30
8gg	0
16aa	0
16bb-	50
16aa	0
16bb-	50
16gg	0
16aa	0
=31	=31
16ff#	50
16gg	0
16ee	0
16ff#	50
8dd	0
8r	.
=32	=32
8dd	0
8ee	0
16ee	0
16ee	0
8cc	0
=33	=33
8dd	0
8ee	0
16ee	0
16ee	0
8cc	0
=34	=34
!!linebreak:default
8dd	0
16ee	0
16ff#	50
8ee	0
16dd	0
16ee	0
=35	=35
16dd	0
16ee	0
16cc	0
16dd	0
8cc	0
8b-	50
=36	=36
8cc	0
8dd	0
16dd	0
16dd	0
8b-	50
=37	=37
8cc	0
8dd	0
16dd	0
16dd	0
8b-	50
=38	=38
!!linebreak:default
8cc	0
16dd	0
16ee	0
8dd	0
16cc	0
16dd	0
=39	=39
8cc	0
16b-	50
16cc	0
8b-	50
8a	0
=40!:	=40!:
16a	0
16b-	0
16a	0
16g	0
8a	0
8b-	50
=41	=41
8cc	0
8dd	0
8ee	0
8r	.
=42	=42
!!linebreak:default
8ee	0
16dd	0
16ee	0
8dd	0
16cc	0
16dd	0
=43	=43
8cc	0
16b-	50
16cc	0
8b-	50
8a	0
=44	=44
8r	.
4a	0
8cc	0
=45	=45
16b-	50
16cc	0
16b-	50
16a	0
4g	0
=46:!	=46:!
4a	0
4r	.
=45b	=45b
!!linebreak:default
8ff#	50
8gg	0
4aa	0
=46	=46
8ff#	50
8gg	0
4aa	0
=47	=47
8aa	0
16aa	0
16ccc	0
8bb-	50
8aa	0
=47	=47
8gg	0
8ff#	50
16gg	0
16aa	0
16ff#	50
16gg	0
=48	=48
!!pagebreak:default
4.ee	0
8dd	0
=49	=49
16cc	0
16dd	0
16cc	0
16b-	50
4a	0
=50:!	=50:!
8ee	0
16ee	0
16ff#	50
8ee	0
8dd	0
=49b	=49b
8cc	0
8dd	0
8ee	0
8r	.
=50b	=50b
*-	*-
!! Uzun Hava Humdrum Bilgi Bankasi (Uzun Hava Humdrum Database)
!! 
!! Sertan Senturk, Parag Chordia & Erdal Tugcular
!! Georgia Tech Center for Music Technology, 2011
